X: 1
T: Rambling Cat, The
M: 4/4
L: 1/8
R: reel
K: Gmaj
|:D3E G3B|BAGB AGEG|D3E G3e|dBAc BAGE|
D3E G3B|BAGB AGEG|B2AG EGGe|dBAc BGG2:|
|:eAAG BGG2|dGeG dGBd|eAAG BGGE|DEGA BABd|
eAAG BGG2|dGeG dBGE|D3E G3e|dBAc BGG2:|
